X:158
T:Ojfn veg stejt a bojm
O:klezmer
M:3/4
L:1/8
Q:1/4=76
K:Dm
V:1
"Dm" DD A4 |"Gm" GG "Dm" F4 |"Gm" GG "Dm" F3 E|"A7" E D"Dm" F4 |
"Dm" DD AA3 |"C" GG "Bb" F4 |GG "A" F3 E|E2 "Dm" D4 :|
"F" cc "Bb" d3 d|"C" c c"F" F4 |"C7" c3 Bc B|"F" B2 A4 |
"F" cc "Bb" d3 c|"Dm" f e"G7" d4 |"C" c3 Bc B|"F" B2 A4 |
"Dm" FA c3 A|"Gm" A GG4 |"Dm" AF F2 D2 |"C" D2 C4 |
"Dm"  (3FFE G2 F2 |"Gm" ^GG G4 |"A7" F3 EE D|"Dm" D6  |:
"Dm" zA AG GF |"Gm" zG GF FE |"A7" zF FE ED |"Dm" DF "A" EG "Dm" F2 |
"Dm" z[Ac][Ac][GB][GB][FA]|"Gm" z [GB][GB][FA][FA][EG]|"A7" [F3A3][EG][EG][DF]|"Dm" [D6F6]:|





